resources/svg/arrow-left-small-o.svg

<svg xmlns="http://www.w3.org/2000/svg" viewBox="0 0 15 15" fill="none"><path d="M6.14645 9.85355L6.5 10.2071L7.20711 9.5L6.85355 9.14645L6.14645 9.85355ZM4.5 7.5L4.14645 7.14645L3.79289 7.5L4.14645 7.85355L4.5 7.5ZM6.85355 5.85355L7.20711 5.5L6.5 4.79289L6.14645 5.14645L6.85355 5.85355ZM6.85355 9.14645L4.85355 7.14645L4.14645 7.85355L6.14645 9.85355L6.85355 9.14645ZM4.85355 7.85355L6.85355 5.85355L6.14645 5.14645L4.14645 7.14645L4.85355 7.85355ZM4.5 8H11V7H4.5V8Z" fill="black"/></svg>

<svg xmlns="http://www.w3.org/2000/svg" viewBox="0 0 15 15" fill="none"><path d="M6.146 9.854l.354.353.707-.707-.353-.354-.708.708zM4.5 7.5l-.354-.354-.353.354.353.354L4.5 7.5zm2.354-1.646l.353-.354-.707-.707-.354.353.708.708zm0 3.292l-2-2-.708.708 2 2 .708-.708zm-2-1.292l2-2-.708-.708-2 2 .708.708zM4.5 8H11V7H4.5v1z" fill="currentColor"/></svg>
